src/svgs/inspect.svg

<?xml version="1.0" encoding="UTF-8" standalone="no"?>
<!-- Created with Inkscape (http://www.inkscape.org/) -->

<svg
   xmlns:dc="http://purl.org/dc/elements/1.1/"
   xmlns:cc="http://creativecommons.org/ns#"
   xmlns:rdf="http://www.w3.org/1999/02/22-rdf-syntax-ns#"
   xmlns:svg="http://www.w3.org/2000/svg"
   xmlns="http://www.w3.org/2000/svg"
   xmlns:sodipodi="http://sodipodi.sourceforge.net/DTD/sodipodi-0.dtd"
   xmlns:inkscape="http://www.inkscape.org/namespaces/inkscape"
   width="20"
   height="20"
   id="svg4863"
   version="1.1"
   inkscape:version="0.48.5 r10040"
   sodipodi:docname="inspect.svg">
  <defs
     id="defs4865" />
  <sodipodi:namedview
     id="base"
     pagecolor="#ffffff"
     bordercolor="#666666"
     borderopacity="1.0"
     inkscape:pageopacity="0.0"
     inkscape:pageshadow="2"
     inkscape:zoom="1"
     inkscape:cx="13.411098"
     inkscape:cy="4.6915158"
     inkscape:document-units="px"
     inkscape:current-layer="layer1"
     showgrid="false"
     inkscape:snap-bbox="true"
     inkscape:snap-nodes="true"
     inkscape:window-width="1608"
     inkscape:window-height="970"
     inkscape:window-x="154"
     inkscape:window-y="24"
     inkscape:window-maximized="0">
    <inkscape:grid
       type="xygrid"
       id="grid4886"
       empspacing="5"
       visible="true"
       enabled="true"
       snapvisiblegridlinesonly="true" />
  </sodipodi:namedview>
  <metadata
     id="metadata4868">
    <rdf:RDF>
      <cc:Work
         rdf:about="">
        <dc:format>image/svg+xml</dc:format>
        <dc:type
           rdf:resource="http://purl.org/dc/dcmitype/StillImage" />
        <dc:title />
      </cc:Work>
    </rdf:RDF>
  </metadata>
  <g
     inkscape:label="Layer 1"
     inkscape:groupmode="layer"
     id="layer1"
     transform="translate(0,-1032.3622)">
    <g
       id="g5099"
       transform="translate(78,2)">
      <path
         style="color:#000000;fill:#000000;fill-opacity:1;fill-rule:nonzero;stroke:none;stroke-width:3.99999905;marker:none;visibility:visible;display:inline;overflow:visible;enable-background:accumulate"
         d="M 8.03125,4 3,6 3,7 8.03125,9 8.96875,9 14,7 14,6 8.96875,4 z M 4,9 3,9.5 l 0,1 5.03125,2 0.9375,0 0.03125,0 0,-2 -0.03125,0 -0.9375,0 z M 4,12.5 3,13 3,14 8.03125,16 9,16 c 0,0 1.333333,0 2,0 l -1.96875,-2 -1,0 z"
         transform="translate(-78,1030.3622)"
         id="path4677-2"
         inkscape:connector-curvature="0"
         sodipodi:nodetypes="cccccccccccccccccccccccccccc" />
      <path
         style="color:#000000;fill:#000000;fill-opacity:1;fill-rule:nonzero;stroke:none;stroke-width:1;marker:none;visibility:visible;display:inline;overflow:visible;enable-background:accumulate"
         d="M 13 9 C 11.352036 9 10 10.352 10 12 C 10 13.6479 11.352036 15 13 15 C 13.45109 15 13.864917 14.868439 14.25 14.6875 L 16.28125 16.71875 C 16.462214 16.89965 16.723858 17 17 17 C 17.552285 17 18 16.5523 18 16 C 18 15.7239 17.899714 15.46215 17.71875 15.28125 L 15.6875 13.25 C 15.868443 12.864929 16 12.451072 16 12 C 16 10.352 14.647965 9 13 9 z M 13 10.5 C 13.837304 10.5 14.5 11.1627 14.5 12 C 14.5 12.8373 13.837304 13.5 13 13.5 C 12.162696 13.5 11.5 12.8373 11.5 12 C 11.5 11.1627 12.162696 10.5 13 10.5 z "
         transform="translate(-78,1030.3622)"
         id="path5093-8" />
    </g>
  </g>
</svg>

<?xml version="1.0" encoding="UTF-8" standalone="yes"?>
<svg viewBox="0 0 20 20">
  <path d="M8,4L3,6v1l5,2H9l5-2V6L9,4H8z M4,9L3,9.5v1l5,2H9h0v-2h0H8L4,9z M4,12.5L3,13v1l5,2h1c0,0,1.3,0,2,0l-2-2H8L4,12.5z"/>
  <path d="M13,9c-1.6,0-3,1.4-3,3c0,1.6,1.4,3,3,3c0.5,0,0.9-0.1,1.2-0.3l2,2c0.2,0.2,0.4,0.3,0.7,0.3c0.6,0,1-0.4,1-1
	c0-0.3-0.1-0.5-0.3-0.7l-2-2c0.2-0.4,0.3-0.8,0.3-1.2C16,10.4,14.6,9,13,9z M13,10.5c0.8,0,1.5,0.7,1.5,1.5s-0.7,1.5-1.5,1.5
	s-1.5-0.7-1.5-1.5S12.2,10.5,13,10.5z"/>
</svg>
